wilib/img/svg/balao2.svg

<svg xmlns="http://www.w3.org/2000/svg" xmlns:xlink="http://www.w3.org/1999/xlink" preserveAspectRatio="none" width="260" height="115" viewBox="0 0 260 115"><defs><path fill="#0F0" d="M343.45 172.4q-3.15-1.2-6.5-1.85-6.65-1.35-14-.4-13.033 1.593-21.15 8.35-3.077 2.575-5.45 5.9-1.8 2.4-2.8 5.05 1-2.65 2.8-5.05-8.15-2.45-17-1.85.3.15.65.3 4 2.1 6.6 4.55-2.6-2.45-6.6-4.55-.35-.15-.65-.3-5.093-2.614-11.15-4.05-7.34-1.75-16.1-1.75-8.847-.027-16.3 1.75-6.33 1.518-11.65 4.35-7.6 4-10.25 9.15-5.05 10.65 9.9 20.5.15.1.35.2 2.65 1.4 5.55 2.5-2.9-1.1-5.55-2.5-.2-.1-.35-.2-.25.4-.4.8-1.3 3-.9 6.35v.05q.8 6.05 7.15 9.8.05-.1.1-.1h.05q4.85-2.8 10.6-3.5l1.7-.15-1.7.15q-5.75.7-10.6 3.5l-.1.15-.05-.05q-9.95 5.8-8.85 14.8.75 6 6.9 9.75 6 3.8 14.3 3.45v-.05q.1-1.95.65-3.9-.55 1.95-.65 3.9l.1.05h-.1q-.1 1.85.1 3.25 1.2 10.05 11.95 15.9 10.7 5.9 24.6 4.2 9.1-1.15 16.55-5.4 3.4-2.05 6-4.4-2.6 2.35-6 4.4l.1.1q4.05 4.2 10.7 6.2 6.6 1.95 13.95 1.1 10.6-1.35 17.7-7.7-1.15-1.4-2.1-3.35.95 1.95 2.1 3.35.1-.1.25-.2l-.1.3q3.25 3.65 8.8 5.4 5.5 1.65 11.7.85 10.65-1.3 16.4-8.25-2.6-1.7-4.2-3.8 1.6 2.1 4.2 3.8 7.95 5.25 19.2 3.85 8.75-1.1 15-5.95 6.15-4.9 6.9-11.3l-.05-.05q0-.05.05-.05.25-1.45.05-3.1.2 1.65-.05 3.1 8.4-2.8 13.2-8.6 4.75-5.85 3.95-12.3-.5-3.9-3.05-7.25-2.95-3.85-8.1-6.25 5.15 2.4 8.1 6.25l.05-.1q6.15-7.35 5.1-15.65-1.15-9.15-10.2-14.95-9.05-5.85-21.6-5.55.45 3.9-.9 7.6 1.35-3.7.9-7.6-.05-.05-.1-.05l.05-.05q-1.15-8.55-10.25-13.5-4.267-2.332-9.15-3.25-5.527-1.05-11.85-.25-.886.107-1.75.25-7.204 1.185-13.05 4.8l-.05.1q1.2 2.15 2 4.9-.8-2.75-2-4.9-.9-1.55-2-2.95-.83-1.02-1.8-1.95-3.874-3.774-9.85-6.1M191.7 209.8q0-1.5-2-2.6-2.05-1.1-4.9-1.1-2.9 0-4.9 1.1-2.1 1.1-2.05 2.6-.05 1.5 2.05 2.6 2 1.1 4.9 1.1 2.85 0 4.9-1.1 2-1.1 2-2.6m4.95-17.45q-5.75-.05-9.75 2.1-4.1 2.2-4.1 5.25 0 3 4.1 5.2 4 2.15 9.75 2.15 5.7 0 9.8-2.15.5-.25.95-.55 3.05-2 3.05-4.65 0-2.65-3.05-4.65-.45-.3-.95-.6-4.1-2.15-9.8-2.1z" id="a"/><path id="b" stroke="#CCC" stroke-width="1.45" stroke-linejoin="round" stroke-linecap="round" fill="none" d="M296.35 184.4q2.373-3.325 5.45-5.9 8.117-6.757 21.15-8.35 7.35-.95 14 .4 3.35.65 6.5 1.85 5.976 2.326 9.85 6.1.97.93 1.8 1.95 1.1 1.4 2 2.95l.05-.1q5.846-3.615 13.05-4.8.864-.143 1.75-.25 6.323-.8 11.875.25 4.858.918 9.125 3.25 9.1 4.95 10.25 13.5l-.05.05q.05 0 .1.05 12.55-.3 21.6 5.55 9.05 5.8 10.2 14.95 1.05 8.3-5.1 15.65l-.05.1q2.55 3.35 3.05 7.25.8 6.45-3.95 12.3-4.8 5.8-13.2 8.6-.05 0-.05.05l.05.05q-.75 6.4-6.9 11.3-6.25 4.85-15 5.95-11.25 1.4-19.2-3.85-5.75 6.95-16.4 8.25-6.2.8-11.7-.85-5.55-1.75-8.8-5.4l.1-.3q-.15.1-.25.2-7.1 6.35-17.7 7.7-7.35.85-13.95-1.1-6.65-2-10.7-6.2l-.1-.1q-7.45 4.25-16.55 5.4-13.9 1.7-24.6-4.2-10.75-5.85-11.95-15.9-.2-1.4-.1-3.25-8.3.35-14.3-3.45-6.15-3.75-6.9-9.75-1.1-9 8.85-14.8-6.35-3.75-7.15-9.8v-.05q-.4-3.35.9-6.35.15-.4.4-.8-14.95-9.85-9.9-20.5 2.65-5.15 10.25-9.15 5.32-2.832 11.675-4.35 7.428-1.777 16.275-1.75 8.76 0 16.125 1.75 6.032 1.436 11.125 4.05 8.85-.6 17 1.85-1.8 2.4-2.8 5.05m63.55-6.05q1.2 2.15 2 4.9m70.8 43.3q-2.95-3.85-8.1-6.25m-6 34.4q.25-1.45.05-3.1m-78.2 18.5q-1.15-1.4-2.1-3.35m39.15 1.45q-2.6-1.7-4.2-3.8m32.75-74.1q.45 3.9-.9 7.6M186.9 204.9q4 2.15 9.75 2.15 5.7 0 9.8-2.15.5-.25.95-.55 3.05-2 3.05-4.65 0-2.65-3.05-4.65-.45-.3-.95-.6-4.1-2.15-9.8-2.1-5.75-.05-9.75 2.1-4.1 2.2-4.1 5.25 0 3 4.1 5.2zm92.45-22.35q.3.15.65.3 4 2.1 6.6 4.55m8.6 88.05q3.4-2.05 6-4.4m-71.5-55.85q-2.9-1.1-5.55-2.5-.2-.1-.35-.2m6 16.9q4.85-2.8 10.6-3.5l1.7-.15m-12.45 3.75l.05.05.1-.15h-.05q-.05 0-.1.1zm-49.75-17.1q2 1.1 4.9 1.1 2.85 0 4.9-1.1 2-1.1 2-2.6t-2-2.6q-2.05-1.1-4.9-1.1-2.9 0-4.9 1.1-2.1 1.1-2.05 2.6-.05 1.5 2.05 2.6zm62.1 45.05v.05h.1l-.1-.05q.1-1.95.65-3.9"/></defs><g transform="translate(-177.05 -168.95)"><use xlink:href="#a"/><use xlink:href="#b"/></g></svg>

<svg xmlns="http://www.w3.org/2000/svg" version="1.1" xmlns:xlink="http://www.w3.org/1999/xlink" preserveAspectRatio="none" x="0px" y="0px" width="260px" height="115px" viewBox="0 0 260 115">
<defs>
<g id="Layer0_0_MEMBER_0_FILL">
<path fill="#00FF00" stroke="none" d="
M 343.45 172.4
Q 340.3 171.2 336.95 170.55 330.3 169.2 322.95 170.15 309.9169921875 171.74296875 301.8 178.5 298.723046875 181.075 296.35 184.4 294.55 186.8 293.55 189.45 294.55 186.8 296.35 184.4 288.2 181.95 279.35 182.55 279.65 182.7 280 182.85 284 184.95 286.6 187.4 284 184.95 280 182.85 279.65 182.7 279.35 182.55 274.25703125 179.9359375 268.2 178.5 260.861328125 176.75 252.1 176.75 243.253125 176.723046875 235.8 178.5 229.4693359375 180.017578125 224.15 182.85 216.55 186.85 213.9 192 208.85 202.65 223.8 212.5 223.95 212.6 224.15 212.7 226.8 214.1 229.7 215.2 226.8 214.1 224.15 212.7 223.95 212.6 223.8 212.5 223.55 212.9 223.4 213.3 222.1 216.3 222.5 219.65
L 222.5 219.7
Q 223.3 225.75 229.65 229.5 229.7 229.4 229.75 229.4
L 229.8 229.4
Q 234.65 226.6 240.4 225.9
L 242.1 225.75 240.4 225.9
Q 234.65 226.6 229.8 229.4
L 229.7 229.55 229.65 229.5
Q 219.7 235.3 220.8 244.3 221.55 250.3 227.7 254.05 233.7 257.85 242 257.5
L 242 257.45
Q 242.1 255.5 242.65 253.55 242.1 255.5 242 257.45
L 242.1 257.5 242 257.5
Q 241.9 259.35 242.1 260.75 243.3 270.8 254.05 276.65 264.75 282.55 278.65 280.85 287.75 279.7 295.2 275.45 298.6 273.4 301.2 271.05 298.6 273.4 295.2 275.45
L 295.3 275.55
Q 299.35 279.75 306 281.75 312.6 283.7 319.95 282.85 330.55 281.5 337.65 275.15 336.5 273.75 335.55 271.8 336.5 273.75 337.65 275.15 337.75 275.05 337.9 274.95
L 337.8 275.25
Q 341.05 278.9 346.6 280.65 352.1 282.3 358.3 281.5 368.95 280.2 374.7 273.25 372.1 271.55 370.5 269.45 372.1 271.55 374.7 273.25 382.65 278.5 393.9 277.1 402.65 276 408.9 271.15 415.05 266.25 415.8 259.85
L 415.75 259.8
Q 415.75 259.75 415.8 259.75 416.05 258.3 415.85 256.65 416.05 258.3 415.8 259.75 424.2 256.95 429 251.15 433.75 245.3 432.95 238.85 432.45 234.95 429.9 231.6 426.95 227.75 421.8 225.35 426.95 227.75 429.9 231.6
L 429.95 231.5
Q 436.1 224.15 435.05 215.85 433.9 206.7 424.85 200.9 415.8 195.05 403.25 195.35 403.7 199.25 402.35 202.95 403.7 199.25 403.25 195.35 403.2 195.3 403.15 195.3
L 403.2 195.25
Q 402.05 186.7 392.95 181.75 388.6828125 179.4181640625 383.8 178.5 378.2734375 177.449609375 371.95 178.25 371.063671875 178.357421875 370.2 178.5 362.9962890625 179.68515625 357.15 183.3
L 357.1 183.4
Q 358.3 185.55 359.1 188.3 358.3 185.55 357.1 183.4 356.2 181.85 355.1 180.45 354.2689453125 179.430859375 353.3 178.5 349.42578125 174.726171875 343.45 172.4
M 191.7 209.8
Q 191.7 208.3 189.7 207.2 187.65 206.1 184.8 206.1 181.9 206.1 179.9 207.2 177.8 208.3 177.85 209.8 177.8 211.3 179.9 212.4 181.9 213.5 184.8 213.5 187.65 213.5 189.7 212.4 191.7 211.3 191.7 209.8
M 196.65 192.35
Q 190.9 192.3 186.9 194.45 182.8 196.65 182.8 199.7 182.8 202.7 186.9 204.9 190.9 207.05 196.65 207.05 202.35 207.05 206.45 204.9 206.95 204.65 207.4 204.35 210.45 202.35 210.45 199.7 210.45 197.05 207.4 195.05 206.95 194.75 206.45 194.45 202.35 192.3 196.65 192.35 Z"/>
</g>

<path id="Layer0_0_MEMBER_0_1_STROKES" stroke="#CCCCCC" stroke-width="1.45" stroke-linejoin="round" stroke-linecap="round" fill="none" d="
M 296.35 184.4
Q 298.723046875 181.075 301.8 178.5 309.9169921875 171.74296875 322.95 170.15 330.3 169.2 336.95 170.55 340.3 171.2 343.45 172.4 349.42578125 174.726171875 353.3 178.5 354.2689453125 179.430859375 355.1 180.45 356.2 181.85 357.1 183.4
L 357.15 183.3
Q 362.9962890625 179.68515625 370.2 178.5 371.063671875 178.357421875 371.95 178.25 378.2734375 177.449609375 383.825 178.5 388.6828125 179.4181640625 392.95 181.75 402.05 186.7 403.2 195.25
L 403.15 195.3
Q 403.2 195.3 403.25 195.35 415.8 195.05 424.85 200.9 433.9 206.7 435.05 215.85 436.1 224.15 429.95 231.5
L 429.9 231.6
Q 432.45 234.95 432.95 238.85 433.75 245.3 429 251.15 424.2 256.95 415.8 259.75 415.75 259.75 415.75 259.8
L 415.8 259.85
Q 415.05 266.25 408.9 271.15 402.65 276 393.9 277.1 382.65 278.5 374.7 273.25 368.95 280.2 358.3 281.5 352.1 282.3 346.6 280.65 341.05 278.9 337.8 275.25
L 337.9 274.95
Q 337.75 275.05 337.65 275.15 330.55 281.5 319.95 282.85 312.6 283.7 306 281.75 299.35 279.75 295.3 275.55
L 295.2 275.45
Q 287.75 279.7 278.65 280.85 264.75 282.55 254.05 276.65 243.3 270.8 242.1 260.75 241.9 259.35 242 257.5 233.7 257.85 227.7 254.05 221.55 250.3 220.8 244.3 219.7 235.3 229.65 229.5 223.3 225.75 222.5 219.7
L 222.5 219.65
Q 222.1 216.3 223.4 213.3 223.55 212.9 223.8 212.5 208.85 202.65 213.9 192 216.55 186.85 224.15 182.85 229.4693359375 180.017578125 235.825 178.5 243.253125 176.723046875 252.1 176.75 260.861328125 176.75 268.225 178.5 274.25703125 179.9359375 279.35 182.55 288.2 181.95 296.35 184.4 294.55 186.8 293.55 189.45
M 357.1 183.4
Q 358.3 185.55 359.1 188.3
M 429.9 231.6
Q 426.95 227.75 421.8 225.35
M 415.8 259.75
Q 416.05 258.3 415.85 256.65
M 337.65 275.15
Q 336.5 273.75 335.55 271.8
M 374.7 273.25
Q 372.1 271.55 370.5 269.45
M 403.25 195.35
Q 403.7 199.25 402.35 202.95
M 186.9 204.9
Q 190.9 207.05 196.65 207.05 202.35 207.05 206.45 204.9 206.95 204.65 207.4 204.35 210.45 202.35 210.45 199.7 210.45 197.05 207.4 195.05 206.95 194.75 206.45 194.45 202.35 192.3 196.65 192.35 190.9 192.3 186.9 194.45 182.8 196.65 182.8 199.7 182.8 202.7 186.9 204.9 Z
M 279.35 182.55
Q 279.65 182.7 280 182.85 284 184.95 286.6 187.4
M 295.2 275.45
Q 298.6 273.4 301.2 271.05
M 229.7 215.2
Q 226.8 214.1 224.15 212.7 223.95 212.6 223.8 212.5
M 229.8 229.4
Q 234.65 226.6 240.4 225.9
L 242.1 225.75
M 229.65 229.5
L 229.7 229.55 229.8 229.4 229.75 229.4
Q 229.7 229.4 229.65 229.5 Z
M 179.9 212.4
Q 181.9 213.5 184.8 213.5 187.65 213.5 189.7 212.4 191.7 211.3 191.7 209.8 191.7 208.3 189.7 207.2 187.65 206.1 184.8 206.1 181.9 206.1 179.9 207.2 177.8 208.3 177.85 209.8 177.8 211.3 179.9 212.4 Z
M 242 257.45
L 242 257.5 242.1 257.5 242 257.45
Q 242.1 255.5 242.65 253.55"/>
</defs>

<g transform="matrix( 1, 0, 0, 1, -177.05,-168.95) ">
<use xlink:href="#Layer0_0_MEMBER_0_FILL"/>

<use xlink:href="#Layer0_0_MEMBER_0_1_STROKES"/>
</g>
</svg>
